X:17
T:Polska från Västmanland
T:Svenska Folkdansar H4 nr 17
O:Västmanland
B:Traditioner av Svenska Folkdansar Häfte 4, nr 17
R:Polska
Z:Nils L
U:t=turn
M:3/4
L:1/8
K:Dm
A2 a>b a>g | A2 f>g f>e | d2 d2 ^c>d | e2 A2 z2 |
A2 a>b a>g | A2 f>g f>e | d2 d2 e>^c | d2 D2 z2 ::
A2 d2 d>^c | d>e f>g f>e | e2 d"^\#"td fd | e2 A2 A2 |
A2 d2 d>^c | d>e f>g f>e | d>e f2 "^d?"c2 | (^c2 d2) z2 :|

